!! 00000] TT[WS
!!!OTL: Qingshan shang
!!!ARE: Asia, China, Shanxi Shouyang
!! Ethnic Group: Han
!! WII, 114 (2)
!!!SCT: J0574
!!!YEM: Copyright 1995, estate of Helmut Schaffrath.
**kern
*ICvox
*Ivox
*M2/4
*k[f#c#g#]
*A:
{8.dd#
16cc#
8ee
8ff#
=1
4ee
4ee
=2
8dd#
8cc#
8ee
8ff#
=3
2e}
=4
{8dd#
8cc#
8ee
8ff#
=5
4b
8ee
8a
=6
4g#
8b
8f#
=7
2e}
=8
{4a
8b
8a
=9
8g#
8f#
4e
=10
8dd#
8cc#
8ee
8ff#
=11
2ee}
=12
{8.dd#
16cc#
8ee
8ff#
=13
8b
8b
8ee
8a
=14
4g#
8b
8f#
=15
2e}
==
!!!AGN: Xiaodiao. Qingge, Sichun
!!!ONB: ESAC (Essen Associative Code) Database: CHINA
!!!AMT: simple duple
!!!AIN: vox
!!!EED: Helmut Schaffrath
!!!EEV: 1.0
*-
